X:1
T:Come, Thou Long Expected Jesus (Werdebaugh)
T:Come, Thou Long Expected Jesus (Werdebaugh)
T:Scott Werdebaugh, 2018
T:Charles Wesley, 1744
T:Copyright © 2018 by Scott Werdebaugh and New Heart Music - May freely copy and use for Christian worship or devotions with no alterations. All Other Rights Are Reserved.
T:Copyright © 2018 by Scott Werdebaugh and New Heart Music - May freely copy and use for Christian worship or devotions with no alterations. All Other Rights Are Reserved.
C:Scott Werdebaugh, 2018
Z:Copyright © 2018 by Scott Werdebaugh and New Heart Music - May freely copy and use for
Z:Christian worship or devotions with no alterations. All Other Rights Are Reserved.
%%score ( 1 2 ) 3
L:1/8
Q:1/4=128
M:3/4
K:C
V:1 treble 
V:2 treble 
V:3 bass 
V:1
"^In eager anticipation""^C" [EG]4 [EG]2 | [EG]4 [CE]2 |"^F" [CA]4"^G" [DB]2 | %3
w: Come, Thou|Long- ex-|pect- ed|
w: Born Thy|peo- ple|to de-|
"^F" [CA]4"^C" [EG]2 |"^C" [CE]4"^G7" [DF]2 |"^C" [EG]4 [EG]2 |"^F" [CF]4"^C" [CE]2 | %7
w: Je- sus,|Born to|set Thy|peo- ple|
w: liv- er,|Born a|Child and|yet a|
"^G" [B,D]4 z2 |"^C" [CE]4"^G7" [DF]2 |"^C" [EG]4 [CE]2 |"^F" [CA]4"^G" [DB]2 | %11
w: free.|From our|fears and|sins re-|
w: King,|Born to|reign in|us for-|
"^F" [CA]4"^C" [EG]2 |"^C" [CE]4"^G7" [DF]2 |"^C" [EG]4 [CE]2 |"^F" [CA]4"^G" [DB]2 | %15
w: lease us;|Let us|find our|rest in|
w: ev- er,|Now Thy|gra- cious|king- dom|
"^C" [Ec]4 z2 |"^C" [Ec]4"^Dm7" [Fc]2 |"^C" [Gc]4 [EG]2 |"^F" [FA]4"^G7" [FB]2 | %19
w: Thee.|Is- rael's|Strength and|Con- so-|
w: bring.|By Thine|own e-|ter- nal|
"^F" [FA]4"^C" [EG]2 |"^C" [Ec]4"^G" [DB]2 |"^F" [CA]4"^C" [EG]2 |"^G-G7" (G2 F2)"^C" [CE]2 | %23
w: la- tion,|Hope of|all the|earth * Thou|
w: Spir- it,|Rule in|all our|hearts * a-|
"^G" [B,D]4 z2 |"^C" [CE]4"^G7" [DF]2 |"^C" [EG]4 [EG]2 |"^F" [CA]4"^G" [DB]2 | %27
w: art\-\-|Dear De-|sire of|ev- 'ry|
w: lone,|By Thine|all- suf-|fi- cient|
"^F" [CA]4"^C" [EG]2 |"^C" [CE]4"^F" [CF]2 |"^C" [EG]4"^F" [FA]2 |"^C" [Ec]4"^G" [DB]2 | %31
w: na- tion,|Joy of|ev- 'ry|long- ing|
w: mer- it,|Raise us|to Thy|glo- rious|
"^C" [Ec]4 z2"^Play 2 times" :|"^C" [Ec]4"^G" [DB]2 |"^C" ([CA]4"^G" [DG]2) |"^C" [Ec]4"^G" [DB]2 | %35
w: heart!||||
w: throne.|Ev- en|so, *|Come Lord|
"^F" [CA]4"^C" [EG]2 |"^F" [FA]4"^C" [EG]2 |"^G7" [DF]4"^C" [CE]2 |"^Em" [B,E]4"^G7" [B,D]2 | %39
w: ||||
w: Je- sus,|Quick- ly|come and|take us|
"^C" [G,C]6 |] %40
w: |
w: home!|
V:2
 x6 | x6 | x6 | x6 | x6 | x6 | x6 | x6 | x6 | x6 | x6 | x6 | x6 | x6 | x6 | x6 | x6 | x6 | x6 | %19
 x6 | x6 | x6 | D4 x2 | x6 | x6 | x6 | x6 | x6 | x6 | x6 | x6 | x6 :| x6 | x6 | x6 | x6 | x6 | x6 | %38
 x6 | x6 |] %40
V:3
 [C,C]4 [C,C]2 | [C,C]4 [C,G,]2 | [F,A,]4 [G,,G,]2 | [F,,F,]4 [C,C]2 | [C,G,]4 [B,,G,]2 | %5
 [C,C]4 [C,C]2 | [F,A,]4 [C,G,]2 | [G,,G,]4 z2 | [C,G,]4 [B,,G,]2 | [C,C]4 [C,G,]2 | %10
 [F,,F,]4 [G,,G,]2 | [F,,F,]4 [C,C]2 | [C,G,]4 [B,,G,]2 | [C,C]4 [C,G,]2 | [F,,F,]4 [G,,G,]2 | %15
 [C,G,]4 z2 | [C,G,]4 [D,A,]2 | [E,G,]4 [C,G,]2 | [F,,C]4 [G,,D]2 | [F,,C]4 [C,C]2 | %20
 [C,G,]4 [G,,G,]2 | [F,,F,]4 [C,C]2 | [B,,G,]4 [C,G,]2 | [G,,G,]4 z2 | [C,G,]4 [B,,G,]2 | %25
 [C,C]4 [C,C]2 | [F,,F,]4 [G,,G,]2 | [F,,F,]4 [C,C]2 | [C,G,]4 [F,A,]2 | [C,C]4 [F,C]2 | %30
 [C,G,]4 [G,,G,]2 | [C,G,]4 z2"^Play 2 times" :| [C,G,]4 [G,,G,]2 | ([F,,F,]4 [G,,B,]2) | %34
 [C,G,]4 [G,,G,]2 | [F,,F,]4 [C,C]2 | [F,C]4 [C,C]2 | [G,B,]4 [C,G,]2 | [E,G,]4 [G,,F,]2 | %39
 [C,E,]6 |] %40

